docs/img/mail.svg

<svg width="40" height="40" viewBox="0 0 40 40" fill="none" xmlns="http://www.w3.org/2000/svg">
<path fill-rule="evenodd" clip-rule="evenodd" d="M36.5387 17.6113C36.3013 19.2559 35.7387 20.8189 34.905 22.2563C34.9675 22.6121 34.9996 22.9719 34.9996 23.3331C34.9996 24.5878 34.636 25.7886 33.9626 26.8796C33.6264 27.4242 33.5399 28.0623 33.5067 28.4839C33.4685 28.9671 33.4814 29.4958 33.5159 30.0037C33.5546 30.5735 33.6246 31.1717 33.7048 31.736C33.0543 31.5463 32.3492 31.3558 31.6763 31.204C31.1166 31.0777 30.5439 30.9701 30.0252 30.9165C29.5727 30.8698 28.9188 30.8336 28.3341 31.0226C27.0556 31.4359 25.6488 31.6665 24.1662 31.6665C22.403 31.6665 20.7837 31.3535 19.3643 30.8098C19.0229 30.8253 18.679 30.8331 18.3328 30.8331C16.3252 30.8331 14.3929 30.5691 12.585 30.0811C15.2132 33.1209 19.546 34.9998 24.1662 34.9998C25.9711 34.9998 27.7034 34.7227 29.2999 34.2135C29.3027 34.2136 29.3078 34.2135 29.3153 34.2133C29.3563 34.2125 29.4701 34.2103 29.6827 34.2322C30.017 34.2667 30.4469 34.3438 30.9428 34.4556C31.9301 34.6783 33.0395 35.007 33.9041 35.2814C35.7377 35.8635 37.5143 34.2634 37.1866 32.4027C37.0456 31.6019 36.899 30.6245 36.8415 29.7778C36.8126 29.3521 36.8094 29.0026 36.8297 28.7462C36.8381 28.6399 36.8488 28.5733 36.8556 28.5379C37.7933 26.9846 38.3329 25.216 38.3329 23.3331C38.3329 21.2105 37.6736 19.2723 36.5387 17.6113Z" fill="#FF5A30"/>
<path fill-rule="evenodd" clip-rule="evenodd" d="M9.32773 9.49661C7.08113 11.2146 5.83266 13.4698 5.83266 15.833C5.83266 17.0114 6.13943 18.1463 6.71496 19.2017C6.93417 19.6037 6.99636 20.0183 7.0186 20.299C7.04285 20.6051 7.03076 20.9197 7.00414 21.2139C6.95085 21.8028 6.82372 22.4701 6.67124 23.1274C6.49287 23.8962 6.26431 24.7162 6.03239 25.486C6.91281 25.166 7.87508 24.8381 8.78733 24.5719C9.52461 24.3568 10.2692 24.1702 10.9318 24.0654C11.5027 23.9751 12.3311 23.8864 13.0443 24.1332C14.6448 24.6869 16.4353 24.9997 18.3327 24.9997C21.9113 24.9997 25.0895 23.8886 27.3376 22.1694C29.5842 20.4514 30.8327 18.1962 30.8327 15.833C30.8327 13.4698 29.5842 11.2146 27.3376 9.49661C25.0895 7.77745 21.9113 6.66634 18.3327 6.66634C14.754 6.66634 11.5759 7.77745 9.32773 9.49661ZM7.30289 6.84875C10.1821 4.64702 14.0872 3.33301 18.3327 3.33301C22.5781 3.33301 26.4832 4.64702 29.3624 6.84875C32.2431 9.05167 34.166 12.2131 34.166 15.833C34.166 19.4529 32.2431 22.6143 29.3624 24.8173C26.4832 27.019 22.5781 28.333 18.3327 28.333C16.0942 28.333 13.9561 27.9681 12.0148 27.3041C12.0128 27.3095 11.8554 27.2941 11.4524 27.3578C10.988 27.4313 10.3952 27.5751 9.72089 27.7719C8.37845 28.1635 6.87087 28.7176 5.72255 29.1645C3.73317 29.9387 1.70658 28.0281 2.37685 25.9929C2.7321 24.9142 3.15108 23.5511 3.42414 22.3741C3.5617 21.7812 3.65096 21.2827 3.68437 20.9135C3.69596 20.7853 3.69896 20.6919 3.69829 20.6288C2.93115 19.1629 2.49932 17.5417 2.49932 15.833C2.49932 12.2131 4.42216 9.05167 7.30289 6.84875ZM3.6928 20.5379C3.69296 20.5377 3.69377 20.5422 3.69475 20.5518C3.69313 20.5429 3.69264 20.5381 3.6928 20.5379Z" fill="#FF5A30"/>
</svg>

<svg width="40" height="40" fill="none" xmlns="http://www.w3.org/2000/svg"><path fill-rule="evenodd" clip-rule="evenodd" d="M36.539 17.611a12.92 12.92 0 01-1.634 4.645c.063.356.095.716.095 1.077 0 1.255-.364 2.456-1.037 3.547-.337.544-.423 1.182-.456 1.604-.038.483-.026 1.012.009 1.52.039.57.109 1.168.189 1.732-.65-.19-1.356-.38-2.029-.532a14.5 14.5 0 00-1.65-.288c-.453-.046-1.107-.082-1.692.107a13.56 13.56 0 01-4.168.643c-1.763 0-3.382-.313-4.802-.856-.341.015-.685.023-1.031.023a22.06 22.06 0 01-5.748-.752C15.213 33.121 19.546 35 24.166 35c1.805 0 3.537-.277 5.134-.786h.015c.041-.002.155-.004.368.018.334.035.764.112 1.26.224.987.222 2.096.551 2.961.825 1.834.583 3.61-1.018 3.283-2.878-.141-.801-.288-1.778-.345-2.625a7.402 7.402 0 01-.012-1.032c.008-.106.019-.173.026-.208.937-1.553 1.477-3.322 1.477-5.205 0-2.122-.66-4.06-1.794-5.722z" fill="#FF5A30"/><path fill-rule="evenodd" clip-rule="evenodd" d="M9.328 9.497c-2.247 1.718-3.495 3.973-3.495 6.336 0 1.178.306 2.313.882 3.369.22.402.281.816.304 1.097.024.306.012.62-.015.915-.053.589-.18 1.256-.333 1.913a38.712 38.712 0 01-.639 2.359c.88-.32 1.843-.648 2.755-.914a17.944 17.944 0 012.145-.507c.57-.09 1.4-.179 2.112.068 1.6.554 3.391.867 5.289.867 3.578 0 6.757-1.111 9.005-2.83 2.246-1.719 3.495-3.974 3.495-6.337 0-2.363-1.249-4.618-3.495-6.336-2.248-1.72-5.427-2.83-9.005-2.83-3.579 0-6.757 1.11-9.005 2.83zM7.303 6.849c2.88-2.202 6.784-3.516 11.03-3.516 4.245 0 8.15 1.314 11.03 3.516 2.88 2.203 4.803 5.364 4.803 8.984s-1.923 6.781-4.804 8.984c-2.879 2.202-6.784 3.516-11.03 3.516-2.238 0-4.376-.365-6.317-1.029-.002.006-.16-.01-.563.054-.464.073-1.057.217-1.731.414-1.343.392-2.85.946-3.998 1.393-1.99.774-4.016-1.137-3.346-3.172.355-1.079.774-2.442 1.047-3.619.138-.593.227-1.091.26-1.46a2.9 2.9 0 00.014-.285A10.293 10.293 0 012.5 15.833c0-3.62 1.923-6.781 4.804-8.984zm-3.61 13.689l.002.014a.092.092 0 01-.002-.014z" fill="#FF5A30"/></svg>
